media/img/sale_tooltip.svg

<svg fill="none" height="100" viewBox="0 0 115 100" width="115" xmlns="http://www.w3.org/2000/svg" xmlns:xlink="http://www.w3.org/1999/xlink"><filter id="a" color-interpolation-filters="sRGB" filterUnits="userSpaceOnUse" height="67.4492" width="83" x="16" y="16"><feFlood flood-opacity="0" result="BackgroundImageFix"/><feColorMatrix in="SourceAlpha" result="hardAlpha" type="matrix" values="0 0 0 0 0 0 0 0 0 0 0 0 0 0 0 0 0 0 127 0"/><feOffset dy="4"/><feGaussianBlur stdDeviation="2"/><feComposite in2="hardAlpha" operator="out"/><feColorMatrix type="matrix" values="0 0 0 0 0 0 0 0 0 0 0 0 0 0 0 0 0 0 0.25 0"/><feBlend in2="BackgroundImageFix" mode="normal" result="effect1_dropShadow_536_3384"/><feBlend in="SourceGraphic" in2="effect1_dropShadow_536_3384" mode="normal" result="shape"/></filter><filter id="b" color-interpolation-filters="sRGB" filterUnits="userSpaceOnUse" height="99.4492" width="115" x="0" y="0"><feFlood flood-opacity="0" result="BackgroundImageFix"/><feColorMatrix in="SourceAlpha" result="hardAlpha" type="matrix" values="0 0 0 0 0 0 0 0 0 0 0 0 0 0 0 0 0 0 127 0"/><feOffset dy="4"/><feGaussianBlur stdDeviation="10"/><feComposite in2="hardAlpha" operator="out"/><feColorMatrix type="matrix" values="0 0 0 0 0 0 0 0 0 0 0 0 0 0 0 0 0 0 0.4 0"/><feBlend in2="BackgroundImageFix" mode="normal" result="effect1_dropShadow_536_3384"/><feBlend in="SourceGraphic" in2="effect1_dropShadow_536_3384" mode="normal" result="shape"/></filter><linearGradient id="c" gradientUnits="userSpaceOnUse" x1="57.4999" x2="57.4999" y1="22.25" y2="76.1608"><stop offset="0" stop-color="#ff6376"/><stop offset=".609225" stop-color="#ff6376"/><stop offset=".927083" stop-color="#da1e35"/></linearGradient><g filter="url(#a)"><g filter="url(#b)"><path d="m28.7506 16c-4.8325 0-8.7506 3.9175-8.7506 8.75v30.6247c0 4.8325 3.9181 8.7499 8.7506 8.7499h18.9817l8.0562 10.4818c.8637 1.1238 2.5587 1.1238 3.4224 0l8.0562-10.4818h18.9823c4.8325 0 8.7506-3.9174 8.7506-8.7499v-30.6247c0-4.8325-3.9181-8.75-8.7506-8.75z" fill="url(#c)"/></g></g></svg>

<svg width="115" height="100" viewBox="0 0 115 100" fill="none" xmlns="http://www.w3.org/2000/svg">
<g filter="url(#filter0_d_536_3384)">
<g filter="url(#filter1_d_536_3384)">
<path d="M28.7506 16C23.9181 16 20 19.9175 20 24.75V55.3747C20 60.2072 23.9181 64.1246 28.7506 64.1246H47.7323L55.7885 74.6064C56.6522 75.7302 58.3472 75.7302 59.2109 74.6064L67.2671 64.1246H86.2494C91.0819 64.1246 95 60.2072 95 55.3747V24.75C95 19.9175 91.0819 16 86.2494 16H28.7506Z" fill="url(#paint0_linear_536_3384)"/>
</g>
</g>
<defs>
<filter id="filter0_d_536_3384" x="16" y="16" width="83" height="67.4492" filterUnits="userSpaceOnUse" color-interpolation-filters="sRGB">
<feFlood flood-opacity="0" result="BackgroundImageFix"/>
<feColorMatrix in="SourceAlpha" type="matrix" values="0 0 0 0 0 0 0 0 0 0 0 0 0 0 0 0 0 0 127 0" result="hardAlpha"/>
<feOffset dy="4"/>
<feGaussianBlur stdDeviation="2"/>
<feComposite in2="hardAlpha" operator="out"/>
<feColorMatrix type="matrix" values="0 0 0 0 0 0 0 0 0 0 0 0 0 0 0 0 0 0 0.25 0"/>
<feBlend mode="normal" in2="BackgroundImageFix" result="effect1_dropShadow_536_3384"/>
<feBlend mode="normal" in="SourceGraphic" in2="effect1_dropShadow_536_3384" result="shape"/>
</filter>
<filter id="filter1_d_536_3384" x="0" y="0" width="115" height="99.4492" filterUnits="userSpaceOnUse" color-interpolation-filters="sRGB">
<feFlood flood-opacity="0" result="BackgroundImageFix"/>
<feColorMatrix in="SourceAlpha" type="matrix" values="0 0 0 0 0 0 0 0 0 0 0 0 0 0 0 0 0 0 127 0" result="hardAlpha"/>
<feOffset dy="4"/>
<feGaussianBlur stdDeviation="10"/>
<feComposite in2="hardAlpha" operator="out"/>
<feColorMatrix type="matrix" values="0 0 0 0 0 0 0 0 0 0 0 0 0 0 0 0 0 0 0.4 0"/>
<feBlend mode="normal" in2="BackgroundImageFix" result="effect1_dropShadow_536_3384"/>
<feBlend mode="normal" in="SourceGraphic" in2="effect1_dropShadow_536_3384" result="shape"/>
</filter>
<linearGradient id="paint0_linear_536_3384" x1="57.4999" y1="22.25" x2="57.4999" y2="76.1608" gradientUnits="userSpaceOnUse">
<stop stop-color="#FF6376"/>
<stop offset="0.609225" stop-color="#FF6376"/>
<stop offset="0.927083" stop-color="#DA1E35"/>
</linearGradient>
</defs>
</svg>
